X: 42780
T: White Strand
R: reel
M: 4/4
K: Gmajor
M:7/8
|:F ~G3 ABd|[M:3/4]B2 AG AB|[M:7/8] F ~G3 ABd|e z BAG AB|
D ~E3 EDE|~G2 DE GAB|D ~E3 EDE|~G2 Dc BAG:|
d ~e3 edB|A2 d AB AG|E ~G3 GED|GE GA Bgf|
d ~e3 gab|a2 b g2 fd|[M:4/4]e2 g d2 B A2-|A2 AG ABGF||
M:7/8
D~E3 EDE|F2 G2 G2 F|G2 D2 d2 B|A2 ~A2 ABd|
e2 ~e2 gab|a2 b g2 fd|[M:4/4]e2 g d2 B A2-|A2 AG Ac cB||[M:7/8]G2|

